; generated by PrusaSlicer 2.5.0+win64 on 2023-02-24 at 14:47:51 UTC


;
;
; 

; external perimeters extrusion width = 0.60mm
; perimeters extrusion width = 0.50mm
; infill extrusion width = 0.50mm
; solid infill extrusion width = 0.50mm
; top infill extrusion width = 0.45mm
; first layer extrusion width = 0.42mm

M73 P0 R51
M73 Q0 S52
M201 X1000 Y1000 Z200 E5000 ; sets maximum accelerations, mm/sec^2
M203 X200 Y200 Z12 E120 ; sets maximum feedrates, mm / sec
M204 P1250 R1250 T1250 ; sets acceleration (P, T) and retract acceleration (R), mm/sec^2
M205 X8.00 Y8.00 Z0.40 E4.50 ; sets the jerk limits, mm/sec
M205 S0 T0 ; sets the minimum extruding and travel feed rate, mm/sec
M107
;TYPE:Custom
M862.3 P "MK3S" ; printer model check
M862.1 P0.4 ; nozzle diameter check
M115 U3.12.1 ; tell printer latest fw version
G90 ; use absolute coordinates
M83 ; extruder relative mode
M104 S215 ; set extruder temp
M140 S60 ; set bed temp
M190 S60 ; wait for bed temp
M109 S215 ; wait for extruder temp
G28 W ; home all without mesh bed level
G80 ; mesh bed leveling

G1 Z0.2 F720
G1 Y-3 F1000 ; go outside print area
G92 E0
G1 X60 E9 F1000 ; intro line
G1 X100 E12.5 F1000 ; intro line

G92 E0
M221 S95

; Don't change E values below. Excessive value can damage the printer.

M907 E538 ; set extruder motor current
G21 ; set units to millimeters
G90 ; use absolute coordinates
M83 ; use relative distances for extrusion
M900 K0.05 ; Filament gcode LA 1.5
M900 K30 ; Filament gcode LA 1.0
M107
;LAYER_CHANGE
;Z:0.2
;HEIGHT:0.2
;BEFORE_LAYER_CHANGE
G92 E0.0
;0.2


G1 E-.8 F2100
G1 Z.4 F720
;AFTER_LAYER_CHANGE
;0.2
G1 X46.66 Y70.617 F10800
G1 Z.2 F720
G1 E.8 F2100
M204 S800
;TYPE:Skirt/Brim
;WIDTH:0.42
G1 F1200
G1 X47.6 Y70.423 E.03008
G1 X132.4 Y70.423 E2.65884
G1 X133.707 Y70.815 E.04278
G1 X134.583 Y71.86 E.04278
G1 X134.777 Y72.8 E.03008
G1 X134.777 Y107.2 E1.07859
G1 X134.385 Y108.507 E.04278
G1 X133.34 Y109.383 E.04278
G1 X132.4 Y109.577 E.03008
G1 X47.6 Y109.577 E2.65884
G1 X46.293 Y109.185 E.04278
G1 X45.417 Y108.14 E.04278
G1 X45.223 Y107.2 E.03008
G1 X45.223 Y72.8 E1.07859
G1 X45.615 Y71.493 E.04278
G1 X46.614 Y70.655 E.0409
M204 S1000
; printing object cubegrashaum.stl id:0 copy 0
;WIPE_START
G1 F8640
G1 X47.6 Y70.423 E-.23384
G1 X49.879 Y70.423 E-.52616
;WIPE_END
G1 E-.04 F2100
G1 Z.6 F720
G1 X84.213 Y73.587 F10800
G1 Z.2 F720
G1 E.8 F2100
M204 S800
;TYPE:Perimeter
;WIDTH:0.419999
G1 F1200
G1 X84.213 Y106.413 E1.02923
G1 X48.387 Y106.413 E1.12329
G1 X48.387 Y73.587 E1.02923
G1 X84.153 Y73.587 E1.12141
M204 S1000
M73 Q0 S51
G1 X84.59 Y73.21 F10800
M204 S800
;TYPE:External perimeter
G1 F1200
G1 X84.59 Y106.79 E1.05288
G1 X48.01 Y106.79 E1.14694
G1 X48.01 Y73.21 E1.05288
G1 X84.53 Y73.21 E1.14506
M204 S1000
M73 P1 R51
M73 Q1 S51
G1 X84.481 Y73.595 F10800
;WIPE_START
G1 F8640
G1 X84.536 Y76.501 E-.76
;WIPE_END
G1 E-.04 F2100
G1 Z.6 F720
G1 X56.117 Y92.069 F10800
G1 Z.2 F720
G1 E.8 F2100
M204 S800
;TYPE:Perimeter
G1 F1200
G1 X55.959 Y92.035 E.00506
G1 X55.759 Y91.879 E.00795
G1 X55.637 Y91.605 E.00941
G1 X55.646 Y91.394 E.00662
G1 X58.133 Y85.653 E.19619
G1 X58.294 Y85.441 E.00835
G1 X58.554 Y85.321 E.00897
G1 X58.652 Y85.313 E.00308
G1 X63.248 Y85.313 E.1441
G1 X63.526 Y85.386 E.00902
G1 X63.685 Y85.519 E.0065
G1 X64.048 Y86.301 E.02702
G1 X65.704 Y90.123 E.13062
G1 X65.898 Y90.648 E.01753
G1 X66.087 Y90.181 E.0158
G1 X67.283 Y87.638 E.08812
G1 X67.501 Y87.396 E.01019
G1 X67.764 Y87.314 E.00866
G1 X72.805 Y87.313 E.15803
G1 X73.038 Y87.363 E.00748
G1 X73.237 Y87.514 E.00783
G1 X73.315 Y87.635 E.00454
G1 X76.001 Y93.278 E.19595
G1 X76.055 Y93.552 E.00875
G1 X75.974 Y93.816 E.00864
G1 X75.805 Y93.991 E.00763
G1 X75.556 Y94.083 E.00833
G1 X75.49 Y94.087 E.00206
G1 X65.11 Y94.087 E.32547
G1 X64.837 Y94.017 E.00883
G1 X64.63 Y93.82 E.00895
G1 X64.544 Y93.527 E.00959
G1 X64.605 Y93.265 E.00841
G1 X65.261 Y91.988 E.04502
G1 X64.447 Y92.077 E.02568
G1 X56.175 Y92.082 E.25935
M204 S1000
G1 X56.197 Y91.71 F10800
M204 S800
;TYPE:External perimeter
G1 F1200
G1 X56.051 Y91.641 E.00507
G1 X56.011 Y91.489 E.00492
G1 X56.024 Y91.446 E.0014
G1 X58.479 Y85.803 E.19296
G1 X58.587 Y85.702 E.00464
G1 X63.248 Y85.69 E.14615
G1 X63.394 Y85.759 E.00505
G1 X65.358 Y90.273 E.15438
G1 X65.524 Y90.747 E.01574
G1 X65.681 Y91.344 E.01934
;WIDTH:0.406057
G1 X65.632 Y91.5 E.00494
;WIDTH:0.406795
G1 X65.525 Y91.573 E.0039
;WIDTH:0.419999
G1 X64.406 Y91.702 E.03534
G1 X56.257 Y91.71 E.2555
M204 S1000
G1 X56.079 Y91.821 F10800
;WIPE_START
G1 F8640
G1 X56.051 Y91.641 E-.05018
G1 X56.011 Y91.489 E-.03624
G1 X56.024 Y91.446 E-.01028
G1 X57.17 Y88.812 E-.66329
;WIPE_END
G1 E-.04 F2100
G1 Z.6 F720
G1 X64.921 Y93.523 F10800
G1 Z.2 F720
G1 E.8 F2100
M204 S800
G1 F1200
G1 X65.535 Y92.265 E.04388
G1 X65.9 Y91.692 E.0213
;WIDTH:0.406057
G1 X66.059 Y91.356 E.01122
;WIDTH:0.419999
G1 X66.254 Y90.771 E.01934
G1 X66.452 Y90.29 E.01631
G1 X67.625 Y87.798 E.08635
G1 X67.755 Y87.694 E.00524
G1 X72.805 Y87.69 E.15832
G1 X72.949 Y87.757 E.00498
G1 X72.975 Y87.798 E.00151
G1 X75.661 Y93.44 E.19595
G1 X75.665 Y93.593 E.00477
G1 X75.554 Y93.699 E.00481
G1 X75.49 Y93.71 E.00204
G1 X65.11 Y93.71 E.32547
G1 X64.968 Y93.645 E.0049
G1 X64.943 Y93.579 E.00221
M204 S1000
G1 X64.583 Y93.309 F10800
;WIPE_START
G1 F8640
G1 X65.535 Y92.265 E-.33279
G1 X65.9 Y91.692 E-.15686
G1 X66.059 Y91.356 E-.08577
G1 X66.254 Y90.771 E-.1424
G1 X66.324 Y90.602 E-.04218
;WIPE_END
G1 E-.04 F2100
G1 Z.6 F720
G1 X84.1 Y74.463 F10800
G1 Z.2 F720
G1 E.8 F2100
M204 S800
;TYPE:Solid infill
;WIDTH:0.420087
G1 F1200
G1 X83.507 Y73.87 E.02629
G1 X82.974 Y73.87 E.01673
G1 X83.93 Y74.826 E.04242
G1 X83.93 Y75.36 E.01673
G1 X82.44 Y73.87 E.06608
G1 X81.907 Y73.87 E.01673
G1 X83.93 Y75.893 E.08974
G1 X83.93 Y76.427 E.01673
G1 X81.373 Y73.87 E.11339
G1 X80.84 Y73.87 E.01673
G1 X83.93 Y76.96 E.13705
G1 X83.93 Y77.493 E.01673
G1 X80.307 Y73.87 E.16071
G1 X79.773 Y73.87 E.01673
G1 X83.93 Y78.027 E.18436
G1 X83.93 Y78.56 E.01673
G1 X79.24 Y73.87 E.20802
G1 X78.706 Y73.87 E.01673
G1 X83.93 Y79.094 E.23168
G1 X83.93 Y79.627 E.01673
G1 X78.173 Y73.87 E.25534
G1 X77.64 Y73.87 E.01673
G1 X83.93 Y80.16 E.27899
G1 X83.93 Y80.694 E.01673
G1 X77.106 Y73.87 E.30265
G1 X76.573 Y73.87 E.01673
G1 X83.93 Y81.227 E.32631
G1 X83.93 Y81.76 E.01673
G1 X76.04 Y73.87 E.34996
G1 X75.506 Y73.87 E.01673
G1 X83.93 Y82.294 E.37362
G1 X83.93 Y82.827 E.01673
G1 X74.973 Y73.87 E.39728
G1 X74.439 Y73.87 E.01673
G1 X83.93 Y83.361 E.42094
G1 X83.93 Y83.894 E.01673
G1 X73.906 Y73.87 E.44459
G1 X73.373 Y73.87 E.01673
G1 X83.93 Y84.427 E.46825
G1 X83.93 Y84.961 E.01673
G1 X72.839 Y73.87 E.49191
G1 X72.306 Y73.87 E.01673
G1 X83.93 Y85.494 E.51556
G1 X83.93 Y86.028 E.01673
G1 X71.772 Y73.87 E.53922
G1 X71.239 Y73.87 E.01673
G1 X83.93 Y86.561 E.56288
G1 X83.93 Y87.094 E.01673
G1 X70.706 Y73.87 E.58653
G1 X70.172 Y73.87 E.01673
G1 X83.93 Y87.628 E.61019
G1 X83.93 Y88.161 E.01673
G1 X69.639 Y73.87 E.63385
G1 X69.105 Y73.87 E.01673
G1 X83.93 Y88.695 E.65751
G1 X83.93 Y89.228 E.01673
G1 X68.572 Y73.87 E.68116
G1 X68.039 Y73.87 E.01673
M73 P1 R50
G1 X83.93 Y89.761 E.70482
G1 X83.93 Y90.295 E.01673
G1 X67.505 Y73.87 E.72848
G1 X66.972 Y73.87 E.01673
G1 X83.93 Y90.828 E.75213
G1 X83.93 Y91.362 E.01673
M73 P2 R50
M73 Q2 S51
G1 X66.438 Y73.87 E.77579
G1 X65.905 Y73.87 E.01673
G1 X83.93 Y91.895 E.79945
G1 X83.93 Y92.428 E.01673
G1 X65.372 Y73.87 E.82311
G1 X64.838 Y73.87 E.01673
G1 X83.93 Y92.962 E.84676
G1 X83.93 Y93.495 E.01673
G1 X64.305 Y73.87 E.87042
G1 X63.771 Y73.87 E.01673
G1 X83.93 Y94.029 E.89408
G1 X83.93 Y94.562 E.01673
G1 X63.238 Y73.87 E.91773
G1 X62.705 Y73.87 E.01673
G1 X83.93 Y95.095 E.94139
G1 X83.93 Y95.629 E.01673
G1 X62.171 Y73.87 E.96505
G1 X61.638 Y73.87 E.01673
G1 X83.93 Y96.162 E.98871
G1 X83.93 Y96.696 E.01673
G1 X61.104 Y73.87 E1.01236
G1 X60.571 Y73.87 E.01673
G1 X83.93 Y97.229 E1.03602
G1 X83.93 Y97.762 E.01673
G1 X60.038 Y73.87 E1.05968
G1 X59.504 Y73.87 E.01673
G1 X72.665 Y87.03 E.58368
G1 X72.986 Y87.049 E.01009
G1 X73.157 Y87.106 E.00567
G1 X73.385 Y87.257 E.00856
G1 X73.567 Y87.506 E.00967
G1 X73.954 Y88.32 E.02828
G1 X83.93 Y98.296 E.44244
G1 X83.93 Y98.829 E.01673
G1 X74.439 Y89.338 E.42096
G1 X74.923 Y90.356 E.03535
G1 X83.93 Y99.363 E.39947
G1 X83.93 Y99.896 E.01673
M73 Q2 S50
G1 X75.408 Y91.373 E.37799
G1 X75.892 Y92.391 E.03535
G1 X83.93 Y100.429 E.3565
G1 X83.93 Y100.963 E.01673
G1 X76.32 Y93.352 E.33753
G1 X76.339 Y93.521 E.00534
G1 X76.326 Y93.669 E.00465
G1 X76.276 Y93.842 E.00566
G1 X83.93 Y101.496 E.33946
G1 X83.93 Y102.029 E.01673
G1 X76.05 Y94.149 E.3495
G1 X75.964 Y94.226 E.00362
G1 X75.776 Y94.321 E.00659
G1 X75.702 Y94.334 E.00238
G1 X83.93 Y102.563 E.36495
G1 X83.93 Y103.096 E.01673
G1 X75.204 Y94.37 E.38704
G1 X74.67 Y94.369 E.01674
G1 X83.93 Y103.63 E.41071
G1 X83.93 Y104.163 E.01673
G1 X74.136 Y94.369 E.43438
G1 X73.602 Y94.369 E.01674
G1 X83.93 Y104.696 E.45806
G1 X83.93 Y105.23 E.01673
G1 X73.069 Y94.368 E.48173
G1 X72.535 Y94.368 E.01674
G1 X83.93 Y105.763 E.5054
G1 X83.93 Y106.13 E.01151
M73 P3 R50
G1 X83.764 Y106.13 E.00522
G1 X72.001 Y94.368 E.52169
G1 X71.467 Y94.367 E.01674
M73 Q3 S50
G1 X83.23 Y106.13 E.5217
G1 X82.697 Y106.13 E.01673
G1 X70.934 Y94.367 E.52172
G1 X70.4 Y94.367 E.01674
G1 X82.163 Y106.13 E.52173
G1 X81.63 Y106.13 E.01673
G1 X69.866 Y94.366 E.52175
G1 X69.333 Y94.366 E.01674
G1 X81.097 Y106.13 E.52176
G1 X80.563 Y106.13 E.01673
G1 X68.799 Y94.366 E.52178
G1 X68.265 Y94.365 E.01674
G1 X80.03 Y106.13 E.52179
G1 X79.496 Y106.13 E.01673
G1 X67.731 Y94.365 E.52181
G1 X67.198 Y94.365 E.01674
G1 X78.963 Y106.13 E.52182
G1 X78.43 Y106.13 E.01673
G1 X66.664 Y94.364 E.52184
G1 X66.13 Y94.364 E.01674
G1 X77.896 Y106.13 E.52185
G1 X77.363 Y106.13 E.01673
G1 X65.427 Y94.194 E.5294
M204 S1000
;WIPE_START
G1 F8640
G1 X67.754 Y96.521 E-.76
;WIPE_END
G1 E-.04 F2100
G1 Z.6 F720
G1 X64.844 Y92.544 F10800
G1 Z.2 F720
G1 E.8 F2100
M204 S800
G1 F1200
G1 X64.638 Y92.338 E.00916
G1 X64.39 Y92.363 E.00779
G1 X64.129 Y92.363 E.00819
G1 X64.538 Y92.772 E.01814
G1 X64.359 Y93.126 E.01245
G1 X63.596 Y92.364 E.03381
G1 X63.064 Y92.364 E.01671
G1 X64.267 Y93.568 E.05337
G1 X64.307 Y93.797 E.0073
G1 X64.389 Y93.968 E.00596
G1 X64.472 Y94.082 E.00443
G1 X64.7 Y94.266 E.00918
G1 X64.998 Y94.363 E.00983
G1 X65.063 Y94.363 E.00202
G1 X76.83 Y106.13 E.52188
G1 X76.296 Y106.13 E.01673
G1 X62.531 Y92.365 E.61053
G1 X61.998 Y92.365 E.01671
G1 X75.763 Y106.13 E.61051
G1 X75.229 Y106.13 E.01673
G1 X61.465 Y92.366 E.61049
G1 X60.932 Y92.366 E.01671
G1 X74.696 Y106.13 E.61047
G1 X74.163 Y106.13 E.01673
G1 X60.399 Y92.366 E.61045
G1 X59.866 Y92.367 E.01671
G1 X73.629 Y106.13 E.61043
G1 X73.096 Y106.13 E.01673
G1 X59.333 Y92.367 E.61041
G1 X58.8 Y92.368 E.01671
G1 X72.562 Y106.13 E.61039
G1 X72.029 Y106.13 E.01673
G1 X58.267 Y92.368 E.61037
G1 X57.734 Y92.369 E.01671
G1 X71.496 Y106.13 E.61035
G1 X70.962 Y106.13 E.01673
G1 X57.201 Y92.369 E.61033
G1 X56.668 Y92.37 E.01671
G1 X70.598 Y106.3 E.61784
M204 S1000
;WIPE_START
G1 F8640
M73 P3 R49
G1 X68.271 Y103.972 E-.76
;WIPE_END
G1 E-.04 F2100
G1 Z.6 F720
G1 X72.301 Y87.2 F10800
G1 Z.2 F720
G1 E.8 F2100
M204 S800
G1 F1200
G1 X58.971 Y73.87 E.59121
G1 X58.437 Y73.87 E.01673
G1 X71.598 Y87.03 E.58368
G1 X71.064 Y87.03 E.01673
G1 X57.904 Y73.87 E.58368
G1 X57.371 Y73.87 E.01673
G1 X70.531 Y87.03 E.58368
G1 X69.998 Y87.03 E.01673
G1 X56.837 Y73.87 E.58368
G1 X56.304 Y73.87 E.01673
G1 X69.464 Y87.03 E.58368
G1 X68.931 Y87.03 E.01673
M73 P4 R49
G1 X55.771 Y73.87 E.58368
G1 X55.237 Y73.87 E.01673
M73 Q4 S50
G1 X68.397 Y87.03 E.58368
G1 X67.864 Y87.03 E.01673
G1 X54.704 Y73.87 E.58368
G1 X54.17 Y73.87 E.01673
G1 X67.422 Y87.121 E.58773
G1 X67.352 Y87.154 E.00242
G1 X67.178 Y87.295 E.00701
G1 X67.131 Y87.364 E.00262
G1 X53.637 Y73.87 E.59848
G1 X53.104 Y73.87 E.01673
G1 X66.939 Y87.705 E.61363
G1 X66.768 Y88.068 E.01257
G1 X52.57 Y73.87 E.62972
G1 X52.037 Y73.87 E.01673
G1 X63.197 Y85.03 E.49498
G1 X63.47 Y85.059 E.00861
G1 X63.749 Y85.193 E.00972
G1 X63.905 Y85.34 E.0067
G1 X64.024 Y85.535 E.00717
G1 X64.269 Y86.102 E.01937
G1 X66.598 Y88.431 E.10328
G1 X66.427 Y88.793 E.01257
G1 X64.676 Y87.042 E.07768
G1 X65.082 Y87.982 E.03212
G1 X66.256 Y89.156 E.05207
G1 X66.086 Y89.519 E.01257
G1 X65.489 Y88.922 E.02647
G1 X65.895 Y89.862 E.03212
G1 X66.042 Y90.009 E.00652
M204 S1000
;WIPE_START
G1 F8640
G1 X65.895 Y89.862 E-.04799
G1 X65.489 Y88.922 E-.23649
G1 X66.086 Y89.519 E-.19486
G1 X66.256 Y89.156 E-.09256
G1 X65.68 Y88.58 E-.1881
;WIPE_END
G1 E-.04 F2100
G1 Z.6 F720
G1 X62.833 Y85.2 F10800
G1 Z.2 F720
G1 E.8 F2100
M204 S800
G1 F1200
G1 X51.503 Y73.87 E.50251
G1 X50.97 Y73.87 E.01673
G1 X62.13 Y85.03 E.49498
G1 X61.597 Y85.03 E.01673
G1 X50.437 Y73.87 E.49498
G1 X49.903 Y73.87 E.01673
G1 X61.063 Y85.03 E.49498
G1 X60.53 Y85.03 E.01673
G1 X49.37 Y73.87 E.49498
G1 X48.836 Y73.87 E.01673
G1 X59.997 Y85.03 E.49498
G1 X59.463 Y85.03 E.01673
G1 X48.67 Y74.237 E.47871
G1 X48.67 Y74.77 E.01673
G1 X58.93 Y85.03 E.45505
G1 X58.647 Y85.03 E.00889
G1 X58.428 Y85.062 E.00691
G1 X48.67 Y75.304 E.43281
G1 X48.67 Y75.837 E.01673
G1 X58.087 Y85.254 E.41765
G1 X57.922 Y85.445 E.00792
G1 X57.868 Y85.569 E.00423
G1 X48.67 Y76.37 E.40796
G1 X48.67 Y76.904 E.01673
G1 X57.706 Y85.94 E.40077
G1 X57.544 Y86.311 E.01271
G1 X48.67 Y77.437 E.39359
G1 X48.67 Y77.97 E.01673
G1 X57.382 Y86.683 E.3864
G1 X57.22 Y87.054 E.01271
G1 X48.67 Y78.504 E.37922
G1 X48.67 Y79.037 E.01673
M73 Q4 S49
G1 X57.058 Y87.425 E.37203
G1 X56.896 Y87.797 E.01271
G1 X48.67 Y79.571 E.36484
G1 X48.67 Y80.104 E.01673
G1 X56.734 Y88.168 E.35766
G1 X56.572 Y88.54 E.01271
G1 X48.67 Y80.637 E.35047
G1 X48.67 Y81.171 E.01673
G1 X56.41 Y88.911 E.34329
G1 X56.248 Y89.282 E.01271
G1 X48.67 Y81.704 E.3361
G1 X48.67 Y82.238 E.01673
G1 X56.086 Y89.654 E.32891
G1 X55.924 Y90.025 E.01271
G1 X48.67 Y82.771 E.32173
G1 X48.67 Y83.304 E.01673
G1 X55.762 Y90.396 E.31454
G1 X55.6 Y90.768 E.01271
G1 X48.67 Y83.838 E.30736
G1 X48.67 Y84.371 E.01673
G1 X55.568 Y91.27 E.30596
M204 S1000
;WIPE_START
G1 F8640
G1 X53.241 Y88.942 E-.76
;WIPE_END
G1 E-.04 F2100
G1 Z.6 F720
G1 X48.5 Y84.735 F10800
G1 Z.2 F720
G1 E.8 F2100
M204 S800
G1 F1200
G1 X55.354 Y91.589 E.30398
G1 X55.396 Y91.803 E.00685
G1 X55.536 Y92.055 E.00905
G1 X55.637 Y92.16 E.00454
G1 X55.839 Y92.292 E.00757
G1 X56.036 Y92.355 E.0065
G1 X56.129 Y92.364 E.00293
G1 X69.895 Y106.13 E.61056
G1 X69.362 Y106.13 E.01673
G1 X48.67 Y85.438 E.91774
G1 X48.67 Y85.971 E.01673
G1 X68.829 Y106.13 E.89408
G1 X68.295 Y106.13 E.01673
M73 P5 R49
G1 X48.67 Y86.505 E.87042
G1 X48.67 Y87.038 E.01673
M73 Q5 S49
G1 X67.762 Y106.13 E.84676
G1 X67.228 Y106.13 E.01673
G1 X48.67 Y87.572 E.82311
G1 X48.67 Y88.105 E.01673
G1 X66.695 Y106.13 E.79945
G1 X66.162 Y106.13 E.01673
G1 X48.67 Y88.638 E.77579
G1 X48.67 Y89.172 E.01673
G1 X65.628 Y106.13 E.75214
G1 X65.095 Y106.13 E.01673
G1 X48.67 Y89.705 E.72848
G1 X48.67 Y90.239 E.01673
G1 X64.561 Y106.13 E.70482
G1 X64.028 Y106.13 E.01673
G1 X48.67 Y90.772 E.68116
G1 X48.67 Y91.305 E.01673
G1 X63.495 Y106.13 E.65751
G1 X62.961 Y106.13 E.01673
G1 X48.67 Y91.839 E.63385
G1 X48.67 Y92.372 E.01673
G1 X62.428 Y106.13 E.61019
G1 X61.894 Y106.13 E.01673
G1 X48.67 Y92.906 E.58654
G1 X48.67 Y93.439 E.01673
G1 X61.361 Y106.13 E.56288
G1 X60.828 Y106.13 E.01673
G1 X48.67 Y93.972 E.53922
G1 X48.67 Y94.506 E.01673
G1 X60.294 Y106.13 E.51556
G1 X59.761 Y106.13 E.01673
G1 X48.67 Y95.039 E.49191
G1 X48.67 Y95.573 E.01673
G1 X59.227 Y106.13 E.46825
G1 X58.694 Y106.13 E.01673
G1 X48.67 Y96.106 E.44459
G1 X48.67 Y96.639 E.01673
G1 X58.161 Y106.13 E.42094
G1 X57.627 Y106.13 E.01673
G1 X48.67 Y97.173 E.39728
G1 X48.67 Y97.706 E.01673
M73 P5 R48
G1 X57.094 Y106.13 E.37362
G1 X56.561 Y106.13 E.01673
G1 X48.67 Y98.239 E.34997
G1 X48.67 Y98.773 E.01673
G1 X56.027 Y106.13 E.32631
G1 X55.494 Y106.13 E.01673
G1 X48.67 Y99.306 E.30265
G1 X48.67 Y99.84 E.01673
G1 X54.96 Y106.13 E.27899
G1 X54.427 Y106.13 E.01673
G1 X48.67 Y100.373 E.25534
G1 X48.67 Y100.906 E.01673
G1 X53.894 Y106.13 E.23168
G1 X53.36 Y106.13 E.01673
G1 X48.67 Y101.44 E.20802
G1 X48.67 Y101.973 E.01673
G1 X52.827 Y106.13 E.18437
G1 X52.293 Y106.13 E.01673
